packages/rainbowkit/src/wallets/walletConnectors/xdefiWallet/xdefiWallet.svg

<svg width="28" height="28" viewBox="0 0 28 28" fill="none" xmlns="http://www.w3.org/2000/svg">
<g clip-path="url(#clip0_1_2)">
<rect width="28" height="28" fill="#335DE5"/>
<mask id="mask0_1_2" style="mask-type:luminance" maskUnits="userSpaceOnUse" x="0" y="0" width="28" height="28">
<path d="M28 0H0V28H28V0Z" fill="white"/>
</mask>
<g mask="url(#mask0_1_2)">
<path d="M22.3125 0H5.6875C2.54638 0 0 2.54638 0 5.6875V22.3125C0 25.4536 2.54638 28 5.6875 28H22.3125C25.4536 28 28 25.4536 28 22.3125V5.6875C28 2.54638 25.4536 0 22.3125 0Z" fill="#335DE5"/>
<path d="M25.3443 13.1932C25.1981 11.2183 24.5317 9.31536 23.411 7.67107C22.2906 6.02705 20.7544 4.69865 18.9535 3.81697C17.1529 2.93551 15.1502 2.53096 13.1425 2.64339C11.1346 2.75582 9.19127 3.38108 7.50378 4.45813C5.81623 5.53492 4.44278 7.02625 3.51852 8.78478L3.47462 8.87343C3.18265 9.46783 2.98527 10.1032 2.88975 10.7569C2.61655 12.6886 3.04019 14.408 4.14682 15.7318C5.35718 17.1793 7.32774 18.0403 9.69145 18.1533C12.5689 18.296 15.43 17.5237 17.4604 16.1032L18.6641 16.8084C17.5141 17.7893 14.8551 19.5559 10.4514 19.7974C5.50807 20.0665 3.44764 18.4844 3.42839 18.4683L3.08173 18.8892L2.625 19.429C2.71254 19.5016 4.68828 21.073 9.32838 21.073C9.70813 21.073 10.1071 21.073 10.5225 21.0408C15.8524 20.7479 18.7838 18.4611 19.8095 17.4797L20.8164 18.0817C20.1393 18.9579 19.3061 19.7057 18.357 20.2881C15.0119 22.4136 10.7575 22.688 7.77886 22.5401L7.71619 23.7798C8.21636 23.804 8.69723 23.8148 9.16453 23.8148C17.5573 23.8148 20.9525 20.0549 21.9045 18.7065L22.6912 19.1673C21.9371 20.4314 20.9121 21.5232 19.6837 22.3638C18.2128 23.3704 16.5011 23.9825 14.7172 24.1399L14.8265 25.375C16.8295 25.1992 18.7517 24.5129 20.4033 23.3833C22.0549 22.2538 23.3793 20.7201 24.2456 18.9332C25.1117 17.1461 25.4907 15.168 25.3443 13.1932ZM20.4974 13.3842C19.9405 13.3842 19.4889 12.9398 19.4889 12.3914C19.4889 11.8431 19.9402 11.3987 20.4974 11.3987C21.0541 11.3987 21.5057 11.8431 21.5057 12.3914C21.5057 12.9398 21.0544 13.3842 20.4974 13.3842Z" fill="#ECECEC"/>
</g>
</g>
<defs>
<clipPath id="clip0_1_2">
<rect width="28" height="28" fill="white"/>
</clipPath>
</defs>
</svg>

<svg xmlns="http://www.w3.org/2000/svg" fill="none" viewBox="0 0 28 28"><g clip-path="url(#a)"><path fill="#335DE5" d="M0 0h28v28H0z"/><mask id="b" width="28" height="28" x="0" y="0" maskUnits="userSpaceOnUse" style="mask-type:luminance"><path fill="#fff" d="M28 0H0v28h28V0Z"/></mask><g mask="url(#b)"><path fill="#335DE5" d="M22.313 0H5.688A5.687 5.687 0 0 0 0 5.688v16.625A5.688 5.688 0 0 0 5.688 28h16.625A5.688 5.688 0 0 0 28 22.312V5.688A5.688 5.688 0 0 0 22.312 0Z"/><path fill="#ECECEC" d="M25.344 13.193a11.282 11.282 0 0 0-1.933-5.522 11.52 11.52 0 0 0-4.458-3.854 11.73 11.73 0 0 0-11.45.641A11.463 11.463 0 0 0 3.52 8.785l-.044.088a6.357 6.357 0 0 0-.585 1.884c-.273 1.932.15 3.651 1.257 4.975 1.21 1.447 3.18 2.308 5.544 2.421 2.878.143 5.739-.63 7.77-2.05l1.203.705c-1.15.981-3.809 2.748-8.213 2.99-4.943.269-7.003-1.314-7.023-1.33l-.346.421-.457.54c.088.073 2.063 1.644 6.703 1.644.38 0 .78 0 1.195-.032 5.33-.293 8.26-2.58 9.287-3.561l1.006.602a9.165 9.165 0 0 1-2.459 2.206c-3.345 2.126-7.6 2.4-10.578 2.252l-.063 1.24c.5.024.981.035 1.449.035 8.392 0 11.788-3.76 12.74-5.109l.786.461a10.22 10.22 0 0 1-3.007 3.197 10.417 10.417 0 0 1-4.967 1.776l.11 1.235a11.69 11.69 0 0 0 5.576-1.992 11.444 11.444 0 0 0 3.843-4.45 11.25 11.25 0 0 0 1.098-5.74Zm-4.847.191a1 1 0 0 1-1.008-.993 1 1 0 0 1 1.008-.992 1 1 0 0 1 1.009.992 1 1 0 0 1-1.009.993Z"/></g></g><defs><clipPath id="a"><path fill="#fff" d="M0 0h28v28H0z"/></clipPath></defs></svg>
